!!!!SEGMENT: pl-wn--mus-iii-163-891--001_zelenski-wladyslaw--deux-morceaux-de-salon-op-11-romanza.krn
!!!cenid: 18xx:3674
!!!COM: Żeleński, Władysław
!!!COM-rismid: pe41024455
!!!CDT:
!!!CNT:
!!!GTL: Deux morceaux de salon op. 11
!!!OTL: Romanza
!!!PDT:
!!!AGN:
!!!SMS-siglum: PL-Wn
!!!SMS-shelfmark: Mus.III.163.891
!!!SMS-shelfwork: 001 G
!!!SMS-variant:
!!!SMS-altvar:
!!!NIFC-rismid:
!!!URL-scan: https://polona.pl/item/deux-morceaux-de-salon-pour-piano-op-11,NDg5MjY3NzI/0/#info:metadata
!!!ONB-nifc:
!!!AIN: 2 piano
!!!key: A-
**kern	**kern	**dynam
*part2	*part1	*part1
*staff2	*staff1	*
*I"Piano	*I"Piano	*
*Ipiano	*Ipiano	*
*ICklav	*ICklav	*
*IGsolo	*IGsolo	*
*clefF4	*clefG2	*
*k[b-e-a-d-]	*k[b-e-a-d-]	*
*A-:	*A-:	*
*M3/4	*M3/4	*
=1	=1	=1
*ped	*	*
!LO:TX:t=P:problem=mixed beam	!LO:TX:a:B:t=Andante ma non troppo.	!
8AA-/L	8r	.
*Xped	*	*
!	!LO:TUP:a:problem=klamra łukowa	!
8e-\J	40cc\LLL	p
!	!LO:TX:b:i:t=semplice.	!
.	40dd-\	.
.	40cc\	.
.	40bn\	.
.	40cc\JJJ	.
.	8qff/	.
8G\L	4ee-\	.
8e-J 8B-\	.	.
8G\L	8b-X\L	.
8e-\J	8bn\J	.
=2	=2	=2
*ped	*	*
!LO:TX:t=P:problem=mixed beam	!	!
8AA-/L	8r	.
!Xped	!LO:TUP:a:problem=klamra łukowa	!
8e-\J	40cc\LLL	.
.	40dd-\	.
.	40cc\	.
.	40bn\	.
.	40cc\JJJ	.
8G\L	8.gg\L	<
8fJ 8c-X\	.	.
.	[16ff\Jk	.
8G\L	16ff\LL]	.
.	16ee-\	.
8e-J 8B-\	16b-X\	.
.	16bn\JJ	.
=3	=3	=3
*ped	*	*
!LO:TX:t=P:problem=mixed beam	!	!
8AA-/L	8r	.
*Xped	*	*
!	!LO:TUP:a:problem=klamra łukowa	!
8e-\J	40cc\LLL	.
.	40dd-\	.
.	40cc\	.
.	40bn\	.
.	40cc\JJJ	.
8A-\L	4ccc\	[
8fJ 8c\	.	.
.	32qqbb-\LLL	pp
.	32qqaa-\	.
.	32qqgg\	.
.	32qqff\	.
.	32qqee-\	.
.	32qqdd-\	.
!	!LO:TX:b:i:t=espressivo.	!
.	32qqcc\JJJ	.
8G\L	16cc\LL	.
.	16bn\	.
8fJ 8dn\	16gg\	.
.	[16gg\JJ	.
!!LO:LB:g=original
=4	=4	=4
8C\L	16gg\LL]	.
.	16b-X\	.
8enJ 8G\	16cc\	.
.	16dd-X\JJ	.
8C\L	4g/	>
8fJ 8d-X [8G\	.	.
8eL 8c 8G\]	[4cc\	]]
8C\J	.	.
=5	=5	=5
*ped	*	*
!LO:TX:t=P:problem=mixed beam	!	!
8AA-/L	8cc\L]	.
*Xped	*	*
!	!LO:TUP:a:problem=klamra łukowa	!
8e-X\J	40cc\LL	p
.	40dd-\	.
.	40cc\	.
.	40bn\	.
.	40cc\JJJ	.
.	8qff/	.
8G\L	4ee-\	.
8e-J 8B-\	.	.
8G\L	8b-X\L	.
8e-\J	8bn\J	.
=6	=6	=6
*ped	*	*
!LO:TX:t=P:problem=mixed beam	!	!
8AA-/L	8r	.
*Xped	*	*
!	!LO:TUP:a:problem=klamra łukowa	!
8e-\J	40cc\LLL	.
.	40dd-\	.
.	40cc\	.
.	40bn\	.
.	40cc\JJJ	.
8A-\L	8.gg\L	<
8fJ 8c-X\	.	.
.	[16ff\Jk	.
8G\L	16ff\LL]	.
.	16ee-\	.
8e-J 8B-\	16b-X\	.
.	16bn\JJ	.
=7	=7	=7
*^	*	*
*ped	*	*	*
!LO:TX:t=P:problem=mixed beam	!	!	!
8AA-/L	4ryy	8r	.
*Xped	*	*	*
!	!	!LO:TUP:a:problem=klamra łukowa	!
8e-\J	.	40cc\LLL	.
.	.	40dd-\	.
.	.	40cc\	.
.	.	40bn\	.
.	.	40cc\JJJ	.
8A-/L	4A-\	[4ccc\	[
8c/J	.	.	.
.	.	32qqccc\LLL]	pp
.	.	32qqaa-\	.
.	.	32qqff\	.
.	.	32qqee-\	.
.	.	32qqcc\	.
.	.	32qqa-\	.
.	.	32qqf\	.
!	!	!LO:TX:b:i:t=espress.	!
.	.	32qqe-\JJJ	.
8BB-/L	4BB-\	16e-/LL	.
.	.	16dn/	.
8A-/J	.	16cc/	.
.	.	[>16cc/JJ	.
!!LO:LB:g=original
=8	=8	=8	=8
*	*	*^	*
8A-/	2.E-\	8cc^^/L]	16cc\LL	.
.	.	.	16d-X\	.
4G/	.	8b-^^/	16b-\	.
.	.	.	16d-\JJ	.
.	.	8ee-^^/	16ee-\LL	.
.	.	.	16d-\	.
8B-/L	.	8g^^/	16g\	.
.	.	.	16d-\JJ	.
8A-/	.	8f^^/	16f\LL	.
.	.	.	16d-\	.
8G/J	.	8e-^^/J	16e-\	.
.	.	.	16d-\JJ	.
*v	*v	*	*	*
*	*v	*v	*
=9	=9	=9
*ped	*	*
8AA-\L	8a- 8c/	pp
8E-\	8r	.
8A-\	8r	.
8c\	8ee-\L	.
8a-\	8aa-\	.
*Xped	*	*
8A-\J	[8cc\J	.
=10	=10	=10
!	!LO:TX:b:i:t=agitato un poco.	!
8F\L	16cc\KL]	.
.	8ee-\	.
8Bn\	.	.
.	8ddn\	.
8dn\	.	.
.	8cc\	.
8a-\	.	.
.	8bn\	.
8d\	.	.
.	8aa-\	.
8B\J	.	.
.	[16aa-\Jk	.
=11	=11	=11
*ped	*	*
8E-\L	16aa-\KL]	.
.	8gg\	.
8G\	.	.
.	16cc\Jk	.
8c\	8r	.
8g\	8gg\L	.
8c\	8ccc\	.
*Xped	*	*
8G\J	[8cc\J	.
=12	=12	=12
8E-\L	16cc\KL]	.
.	8gg-X\	.
8An\	.	.
.	8ff\	.
8c\	.	.
.	8ee-\	.
8g-X\	.	.
.	8dd-\	.
8c\	.	.
.	8cc\	.
8A\J	.	.
.	[16ff\Jk	.
!!LO:LB:g=original
=13	=13	=13
!	!	!LO:HP:b:t=crescendo poco a poco e stringendo.
8D-\L	16ff\KL]	<
.	8ff\	.
8F\	.	.
.	8een\	.
8B-\	.	.
.	8ee-X\	.
8f\	.	.
.	8dd-\	.
8B-\	.	.
.	8cc\	.
8F\J	.	.
.	[16b-\Jk	.
=14	=14	=14
8D-\L	16b-\KL]	.
.	8bb-\	.
8F\	.	.
.	8aan\	.
8B-\	.	.
.	8aa-X\	.
8f\	.	.
.	8ggn\	.
8B-\	.	.
.	8gg-X\	.
8F\J	.	.
.	16ff\Jk	.
=15	=15	=15
*	*^	*
8C\L	16r	16ryy	.
.	8ddd-^^/L	8.een\	f
8G\J	.	.	.
.	16ccc/Jk	.	.
!LO:TX:t=P:problem=mixed beam	!	!	!
8b->L 8c>\	16r	16ryy	.
.	8aa-^^/L	8.dd-\	.
8C\J	.	.	.
.	16gg/Jk	.	.
!LO:TX:t=P:problem=mixed beam	!	!	!
8a->L 8c>\	16r	16ryy	.
.	8gg^^/L	8.cc\	.
8C/J	.	.	.
.	16ff/Jk	.	.
=16	=16	=16	=16
!LO:TX:t=P:problem=mixed beam	!	!	!
8b->L 8c>\	16r	16ryy	.
.	8ddd-^^/L	8.een\	.
8C/J	.	.	.
.	16ccc/Jk	.	.
!LO:TX:t=P:problem=mixed beam	!	!	!
8b->L 8c>\	16r	16ryy	.
.	8aa-^^/L	8.dd-\	.
8C/J	.	.	.
.	16gg/Jk	.	.
!LO:TX:t=P:problem=mixed beam	!	!	!
8a->L 8c>\	16r	16ryy	.
.	8gg^^/L	8.cc\	.
8C/J	.	.	.
.	16ff/Jk	.	.
!!LO:LB:g=original
=17	=17	=17	=17
!LO:TX:t=P:problem=mixed beam	!	!	!LO:HP:t=diminuendo e rallentando.
8g>L 8d->\	16r	16ryy	>
.	8ff^^/L	8.b-\	.
8C/J	.	.	.
.	16een/Jk	.	.
!LO:TX:t=P:problem=mixed beam	!	!	!
8a->L 8d->\	16r	16ryy	.
.	8gg^^/L	8.bn\	.
8C/J	.	.	.
.	16ff/Jk	.	.
!LO:TX:t=P:problem=mixed beam	!	!	!
8g>L 8c>\	16r	16ryy	.
.	8ff^^/L	8.b-X\	.
8C/J	.	.	.
.	16ee/Jk	.	.
=18	=18	=18	=18
!LO:TX:t=P:problem=mixed beam	!	!	!
8f>L 8Bn>\	16r	16ryy	.
.	8ee-X^^/L	8.a-\	.
8C/J	.	.	.
.	16ddn/Jk	.	.
!LO:TX:t=P:problem=mixed beam	!	!	!
8en>L 8B-X>\	16r	16ryy	.
.	8dd-X^^/L	8.g\	.
8C/J	.	.	.
.	16cc/Jk	.	.
!LO:TX:t=P:problem=mixed beam	!	!	!
8e>L 8B->\	16r	16ryy	.
.	8dd-^^/L	8.g\	.
8BB-/J	.	.	.
.	16cc/Jk	.	.
*	*v	*v	*
=19	=19	=19
*ped	*	*
!LO:TX:t=P:problem=mixed beam	!LO:TX:a:t=a tempo.	!
8AA-/L	8cc-X\L	p
!Xped	!LO:TUP:a:problem=klamra łukowa	!
8f-XJ 8c-X\	40cc-\LL	.
.	40dd-\	.
.	40cc-\	.
.	40b-\	.
.	40cc-\JJJ	.
8A-\L	4.ff-X\	.
8fnJ 8c-\	.	.
8A-\L	.	.
8fJ 8c-\	[8ee-\	.
=20	=20	=20
*ped	*	*
!	!LO:TX:b:i:t=piangando.	!
8A-\L	(16ee-\KL]	.
.	8ddn'\	.
8fJ 8dn 8B-\	.	.
.	8bb-'\	.
8F\L	.	.
.	8aa-'\	.
8a-J 8d 8B-\	.	.
.	8ff'\	.
8FF\L	.	.
.	8dd'\	.
8dJ 8B- 8A-\	.	.
*Xped	*	*
!LO:TX:t=P:problem=fermata na dole	!	!
.	16a-'\Jk)	.
!!LO:PB:g=original
=21;	=21;	=21
*ped	*	*
.	.	.
!LO:TX:t=P:problem=mixed beam	!	!
.	8qg-X/	.
8GG-X/L	[8gg-X\L	.
*Xped	*	*
.	.	.
!	!LO:TUP:a:problem=klamra łukowa	!
8g-XJ 8e- 8c-X\	40gg-\LL]	.
.	40aa-\	.
.	40gg-\	.
.	40ff\	.
.	40gg-\JJJ	.
8G-X\L	4.ccc-X\	.
8g-J 8e- 8c-\	.	.
8F-X\L	.	.
8g-XJ 8d- 8B-\	[8bb-\	.
=22	=22	=22
*ped	*	*
8E-X\L	16bb-\KL]	.
.	(8aan'\	.
8fJ 8c 8An\	.	.
.	8fff'\	.
8E-\L	.	.
.	8cccn'\	.
8fJ 8c 8A\	.	.
.	8aa'\	.
*Xped	*	*
8C\L	.	.
.	8ff'\	.
8e-J 8A 8F\	.	.
!LO:TX:t=P:problem=fermata na dole	!	!
.	16ee-'\Jk)	.
=23;	=23;	=23
*ped	*	*
.	.	.
8D-\L	[8dd-\L	.
*Xped	*	*
!	!LO:TUP:a:problem=klamra łukowa	!
8d-J 8B- 8G-X\	40dd-\LL]	.
.	40ee-\	.
.	40dd-\	.
.	40cc\	.
.	40dd-\JJJ	.
8D-\L	4.gg-X\	.
8g-XJ 8d- 8B-\	.	.
8C-X\L	.	.
8fJ 8d- 8A-\	[8ff\	.
=24	=24	=24
8BB-\L	16ff\KL]	p
.	(8een\	<
8enJ 8cn 8Gn\	.	.
!	!LO:TX:b:t=stringendo.	!
.	8ccc\	.
8AA-\L	.	.
.	8aa-\	.
8fJ 8c 8A-\	.	.
.	8ff\	.
8AA-\L	.	.
.	8ccc-X\	.
8fJ 8e-X 8c-X 8A-\	.	.
.	[16ee-X\Jk)	.
!!LO:LB:g=original
=25	=25	=25
8AA-\L	16ee-\KL]	.
.	8ddn\	.
8fJ 8d- 8B- 8A-\	.	.
.	8bb-\	.
8GG-X\L	.	.
.	8gg-X\	.
8e-J 8B- 8G-X\	.	.
.	8ee-\	.
8EE-\L	.	.
.	8gg-\	.
8e-J 8B- 8G-\	.	.
.	[16b-\Jk	[[
=26	=26	=26
8CnL 8CCn\	16b-\KL]	<
.	(8an\	.
8anJ 8g-X 8e- 8An\	.	.
!	!LO:TX:b:i:t=ritenuto molto.	!
.	8gg-X\	.
8BB-L 8BBB-\	.	.
.	8ee-\	.
8b-J 8g- 8e- 8B-\	.	.
.	8eee-\	.
8AAnL 8AAAn\	.	.
.	8ff#X\	.
8ccJ 8f#X 8e- 8A\	.	.
.	16fff#X\Jk)	.
=27	=27	=27
*ped	*	*
!LO:TX:t=P:problem=mixed beam	!LO:TX:a:t=a tempo.	!
16BB-LL 16BBB-/	[2ggg [>2gg\	.
16e- 16B- 16Gn/	.	ff
16g 16e- 16B-/	.	.
16b->JJ 16g> 16e->\	.	.
!LO:TX:t=P:problem=mixed beam	!	!
8ee->L 8b-> 8g>\	.	.
8b-> 8g> 8e->\	.	.
8g 8e- 8B-/	16ggg]LL 16gg\]	.
.	16gg 16g\	.
*Xped	*	*
8e-J 8B- 8G/	16aa- 16a-\	.
.	16aanJJ 16an\	.
=28	=28	=28
*ped	*	*
16BB-LL 16BBB-/	4.ccc 4.cc\	.
16B- 16G 16E-/	.	.
16e- 16B- 16G/	.	.
16gJJ 16e- 16B-/	.	.
!LO:TX:t=P:problem=mixed beam	!	!
8b->L 8g> 8e->\	.	.
8g 8e- 8B-/	8bb-L 8b-/	.
8e- 8B- 8G/	8eee- 8ee-/	.
*Xped	*	*
8B-J 8G 8E-/	8ggJ 8g/	.
!!LO:LB:g=original
=29	=29	=29
*ped	*	*
16BB-LL 16BBB-/	[2bb- [2b-\	.
16B- 16A- 16E-/	.	.
16f 16B- 16A-/	.	.
16a-JJ 16f 16B-/	.	.
*clefG2	*	*
8ee-L 8a- 8f/	.	.
8a-J 8f 8B-/	.	.
*clefF4	*	*
8fL 8B- 8A-\	16bb-]LL 16b-\]	.
.	16eeen 16een\	.
*Xped	*	*
8B-J 8A- 8E-\	16ggg 16gg\	.
.	16fffJJ 16ff\	.
=30	=30	=30
*ped	*	*
16BB-LL 16BBB-/	4.bbb- 4.bb-\	.
16B- 16A- 16Dn/	.	.
16f 16B- 16A-/	.	.
16a-JJ 16f 16B-/	.	.
*Xped	*	*
*clefG2	*	*
8ddnL 8a- 8f/	.	.
8f 8B-'/	8ddnL 8a-'/	.
8e- 8B-'/	8cc 8a-'/	.
8dnJ 8B-'/	8b-J 8a-'/	.
!LO:CL:ed	!	!
*clefF4	*	*
=31	=31	=31
*ped	*	*
8EE-/L	4.ee- 4.g/	p
32qqBB-/LLL	.	.
32qqE-/	.	.
32qqG/JJJ	.	.
!LO:TUP:b:problem=klamra łukowa	!	!
40B-/LL	.	.
40c/	.	.
40B-/	.	.
40An/	.	.
40B-/JJJ	.	.
*Xped	*	*
4e-/	.	.
.	8gg-XL 8an/	<
8dn/L	8ff 8b-/	.
8f/J	8aa-XJ 8bn/	.
*clefG2	*	*
=32	=32	=32
*	*^	*
8e-/L	8ggn/L	8cc\L	.
8a-/	8ccc/	8ddn\	[
8g/	8bb-/	8ee-\	>
8cc/	8ee-/	[8ee-\	.
8b-/	[8ff/	8ee-\]	.
8B-/J	8ff/J]	8ddJ 8a-\	]
*	*v	*v	*
*clefF4	*	*
!!LO:LB:g=original
=33	=33	=33
*ped	*	*
8EE-/L	4.ee- 4.g/	pp
32qqBB-/LLL	.	.
32qqE-/	.	.
32qqG/JJJ	.	.
!LO:TUP:b:problem=klamra łukowa	!	!
40B-/LL	.	.
40c/	.	.
40B-/	.	.
40An/	.	.
40B-/JJJ	.	.
*Xped	*	*
4e-/	.	.
.	8gg-XL 8an/	<
8d-X/L	8ff 8b-/	.
8An/J	8ccJ 8g-X/	.
=34	=34	=34
*	*^	*
8B-\L	8dd-/L	8f\L	[
8G\J	8b-/	8f-X\	>
!LO:TX:b:i:t=rall un poco.	!	!	!
8A-\L	8cc/	8e-\	.
8fn\	8a-/	[8a-\	.
8e-\	8b-/	8a-\]	.
8E-\J	8bnJ 8g/	8d-\J	]
*	*v	*v	*
=35	=35	=35
*^	*	*
*ped	*	*	*
.	.	8qa- 8qc/	.
!LO:TUP:a:problem=klamra łukowa	!	!	!
40E-/LLL	2AA-\	[8cc/L	p
40F/	.	.	.
40E-/	.	.	.
40Dn/	.	.	.
40E-/JJ	.	.	.
!	!	!LO:TUP:b:problem=klamra łukowa	!
[8e-^^</J	.	40cc/LL]	.
.	.	40dd-/	.
.	.	40cc/	.
.	.	40bn/	.
.	.	40cc/JJJ	.
.	.	8qff/	.
16e-\LL]	.	4ee-\	.
16E-\	.	.	.
16A-\	.	.	.
*Xped	*	*	*
16c\JJ	.	.	.
.	.	8qb-X/	.
*ped	*	*	*
16g\LL	4ryy	8.eee-\L	.
16d-X\	.	.	.
16B-\	.	.	.
*Xped	*	*	*
16E-\JJ	.	16bn\Jk	.
!!LO:LB:g=original
=36	=36	=36	=36
*ped	*	*	*
!LO:TUP:a:problem=klamra łukowa	!	!	!
40E-/LLL	2AA-\	[8cc/L	pp
40F/	.	.	.
40E-/	.	.	.
40Dn/	.	.	.
40E-/JJ	.	.	.
!	!	!LO:TUP:b:problem=klamra łukowa	!
[8e-^^</J	.	40cc/LL]	.
.	.	40dd-/	.
.	.	40cc/	.
.	.	40bn/	.
.	.	40cc/JJJ	.
.	.	8qff/	.
16e-\LL]	.	4ee-\	.
16E-\	.	.	.
*Xped	*	*	*
16A-\	.	.	.
16c\JJ	.	.	.
.	.	8qb-X/	.
*ped	*	*	*
16d-X\LL	4ryy	8.eee-\L	.
16E-\	.	.	.
16e-\	.	.	.
*Xped	*	*	*
16d-\JJ	.	16bn\Jk	.
=37	=37	=37	=37
*ped	*	*	*
!LO:TUP:a:problem=klamra łukowa	!	!	!
40E-/LLL	2AA-\	[8cc/L	.
40F/	.	.	.
40E-/	.	.	.
40Dn/	.	.	.
40E-/JJ	.	.	.
!	!	!LO:TUP:b:problem=klamra łukowa	!
[8e-^^</J	.	40cc/LL]	.
.	.	40dd-/	.
.	.	40cc/	.
.	.	40bn/	.
.	.	40cc/JJJ	.
16e-\LL]	.	4ccc\	.
16E-\	.	.	.
16A-\	.	.	.
*Xped	*	*	*
16c\JJ	.	.	.
.	.	32qqbb-\LLL	.
.	.	32qqaa-\	.
.	.	32qqgg\	.
.	.	32qqff\	.
.	.	32qqee-\	.
.	.	32qqdd-\JJJ	.
16f\LL	4ryy	16dd-\LL	.
16c\	.	16cc\	.
16A-\	.	16aa-\	.
16F\JJ	.	[16aa-\JJ	.
*v	*v	*	*
=38	=38	=38
16D-\LL	16aa-\LL]	<
16A-\	(16f-X\	.
16d-\	16cc\	.
16A-\JJ	16b-\JJ	.
16E-\LL	16dd-\LL	.
16A-\	16cc\	.
16e-\	16ff\	.
16A-\JJ	16ee-\JJ)	[
16E-\LL	(32ddn\LLL	pp
.	32ee-\	.
16G\	32ff\	.
.	32ee-\	.
16d-\	32aa-\	.
.	32gg\	.
16G\JJ	32bb-\	.
.	32dd-X\JJJ)	.
!!LO:PB:g=original
=39	=39	=39
*^	*	*
*ped	*	*	*
!LO:TUP:a:problem=klamra łukowa	!	!	!
40E-/LLL	2AA-\	[8cc/L	p
40F/	.	.	.
40E-/	.	.	.
40Dn/	.	.	.
40E-/JJ	.	.	.
!	!	!LO:TUP:b:problem=klamra łukowa	!
[8e-^^</J	.	40cc/LL]	.
.	.	40dd-/	.
.	.	40cc/	.
.	.	40bn/	.
.	.	40cc/JJJ	.
.	.	8qff/	.
16e-\LL]	.	4ee-\	.
*Xped	*	*	*
16E-\	.	.	.
*ped	*	*	*
16A-\	.	.	.
16c\JIJ	.	.	.
.	.	8qb-X/	.
16g\LL	4ryy	8.eee-\L	.
16d-\	.	.	.
16B-\	.	.	.
*Xped	*	*	*
16E-\JJ	.	16bn\Jk	.
=40	=40	=40	=40
*ped	*	*	*
!LO:TUP:a:problem=klamra łukowa	!	!	!
40E-/LLL	2AA-\	[8cc/L	pp
40F/	.	.	.
40E-/	.	.	.
40Dn/	.	.	.
40E-/JJ	.	.	.
!	!	!LO:TUP:b:problem=klamra łukowa	!
[8e-^^</J	.	40cc/LL]	.
.	.	40dd-/	.
.	.	40cc/	.
.	.	40bn/	.
.	.	40cc/JJJ	.
.	.	8qff/	.
16e-\LL]	.	4ee-\	.
16E-\	.	.	.
*Xped	*	*	*
16A-\	.	.	.
16c\JJ	.	.	.
.	.	8qb-X/	.
*ped	*	*	*
16d-\LL	4ryy	8.eee-\L	.
16E-\	.	.	.
16e-\	.	.	.
*Xped	*	*	*
16d-\JJ	.	16bn\Jk	.
=41	=41	=41	=41
*	*	*^	*
*ped	*	*	*	*
!LO:TUP:a:problem=klamra łukowa	!	!	!	!
40E-/LLL	2AA-\	[8cc/L	2ryy	<
40F/	.	.	.	.
40E-/	.	.	.	.
40Dn/	.	.	.	.
40E-/JJ	.	.	.	.
!	!	!LO:TUP:b:problem=klamra łukowa	!	!
[8g-X^^</J	.	40cc/LL]	.	.
.	.	40dd-/	.	.
.	.	40cc/	.	.
.	.	40bn/	.	.
.	.	40cc/JJJ	.	.
.	.	8qbb-/	.	.
16g-\LL]	.	4aa-\	.	.
16E-\	.	.	.	.
*Xped	*	*	*	*
16A-\	.	.	.	.
16c\JJ	.	.	.	.
*ped	*	*	*	*
16f\LL	4ryy	8a-/L	4a-\	.
16d-\	.	.	.	.
16A-\	.	8b/J	.	[
*Xped	*	*	*	*
16F\JJ	.	.	.	.
*v	*v	*	*	*
!!LO:LB:g=original
=42	=42	=42	=42
*ped	*	*	*
8qEE-/	.	.	.
!LO:TUP:a:problem=klamra łukowa	!	!	!
40G\LLL	[<8b-/L	[4e-\	>
40A-\	.	.	.
40G\	.	.	.
40F\	.	.	.
40G\JJ	.	.	.
!	!LO:TUP:b:problem=klamra łukowa	!	!
[8d-\J	40b-/LL]	.	.
.	40cc/	.	.
.	40b-/	.	.
.	40an/	.	.
.	40b-/JJJ	.	.
!	!LO:TX:b:i:t=rall.	!	!
16d-\LL]	2ee- 2e-/]	2ryy	.
16E-\	.	.	.
16B-\	.	.	.
16d-\JJ	.	.	.
16g\LL	.	.	.
16d-\	.	.	.
*Xped	*	*	*
16B-\	.	.	.
16E-\JJ	.	.	]
*	*v	*v	*
=43	=43	=43
*ped	*	*
!	!LO:TX:a:t=a tempo.	!
8D-\L	[8ff-X\L	p
*Xped	*	*
!	!LO:TUP:a:problem=klamra łukowa	!
8b--J 8f-X\	40ff-\LL]	.
.	40gg-X\	.
.	40ff-\	.
.	40ee-\	.
.	40ff-\JJJ	.
*clefG2	*	*
8d-/L	4.bb--\	.
8b--J 8f-X/	.	.
8d-/L	.	.
8b--J 8f-/	[8aa-\	.
=44	=44	=44
*ped	*	*
!	!LO:TX:b:t=piangendo.	!
8d-/L	16aa-\KL]	.
.	(8ggn'\	.
!LO:N:n=1:acc=n-	!	!
8b-XJ 8g 8e-/	.	.
.	8eee-'\	.
8B-/L	.	.
.	8ddd-'\	.
8dd-J 8g 8e-/	.	.
.	8bb-'\	.
*clefF4	*	*
8BB-\L	.	.
.	8gg'\	.
*Xped	*	*
8gJ 8e- 8d-\	.	.
!LO:TX:t=P:problem=fermata na dole	!	!
.	16dd-'\Jk)	.
!!LO:LB:g=original
=45;	=45;	=45
*ped	*	*
8C-X\L	[8cc-X\L	.
!	!LO:TUP:a:problem=klamra łukowa	!
8f-XJ 8c 8A-\	40cc-\LL]	.
.	40dd-\	.
*Xped	*	*
.	40cc-\	.
.	40b-\	.
.	40cc-\JJJ	.
8C-\L	4.ff-X\	.
8f-J 8c 8A-\	.	.
8B--\L	.	.
8g-XJ 8e- 8c\	[8ee-\	.
=46	=46	=46
*ped	*	*
8A-\L	16ee-\KL]	.
.	(8ddn'\	.
!LO:N:n=3:acc=n-	!	!
8fnJ 8dn 8B-X\	.	.
.	8bb-'\	.
8F\L	.	.
.	8aa-'\	.
8a-J 8d 8B-\	.	.
.	8ffn'\	.
8FF\L	.	.
.	8dd'\	.
*Xped	*	*
8dJ 8B- 8A-\	.	.
.	[16a-'\Jk)	.
=47	=47	=47
8En\L	16a-\KL]	.
!	!	!LO:HP:t=crescendo e molto ritenuto.
.	(8g\	<
8d-XJ 8B- 8G\	.	.
.	8dd-X\	.
8E-X\L	.	.
.	8cc\	.
8g-XJ 8c 8An\	.	.
.	8gg-X\	.
8D-X\L	.	.
.	8ff\	.
8fJ 8B- 8A-X\	.	.
.	[16bb-\Jk	.
=48	=48	=48
8E-\L	16bb-\KL]	.
.	8aa-\	.
8e-J 8c 8A-\	.	.
.	8cc\	.
8E-\L	.	.
.	8ff\	.
8e-J 8c 8A-\	.	.
.	8ee-\	.
8EE-\L	.	.
.	8e-\	.
8cJ 8A- 8E-\	.	.
.	[16dd-\Jk	.
!!LO:LB:g=original
=49	=49	=49
8EE-\L	16dd-\KL]	.
.	8cc\	.
8cJ 8A- 8E-\	.	.
.	8e-\	.
8EE-\L	.	.
.	8dn\	.
8A-J 8F 8E-\	.	.
.	8cc\	.
8EE-\L	.	.
.	8b-\	.
8GJ 8E-\	.	.
.	16d-X\Jk)	.
=50	=50	=50
*^	*	*
*ped	*	*	*
!LO:N:vis=2	!	!LO:TX:a:t=a tempo.	!
16AA-/LL	2AA-\	8c/	.
16E-/	.	.	.
!	!	!LO:TUP:a:problem=klamra łukowa	!
16A-/	.	40ee-\LLL	.
.	.	40ff\	.
.	.	40ee-\	.
16c/JJ	.	.	.
.	.	40ddn\	.
.	.	40ee-\JJJ	.
!	!	!LO:TX:b:i:t=con gran espressione.	!
8a-\L	.	4.aa-\	.
8c\	.	.	.
8E-\	4ryy	.	.
*Xped	*	*	*
8A-\J	.	8cc\	.
=51	=51	=51	=51
.	.	8qcc/	.
*ped	*	*	*
4EE-/	16EE-\LL	4.ee-\	.
.	16E-\	.	.
.	16A-\	.	.
.	16B-\JJ	.	.
*Xped	*	*	*
8e-\L	2ryy	.	.
8B- 8E-\	.	8gL 8d-/	.
8A- 8E-\	.	8f 8d-/	pp
8GJ 8E-\	.	8e-J 8d-/	.
!!LO:LB:g=original
=52	=52	=52	=52
*ped	*	*	*
!LO:N:vis=2	!	!	!
16AA-/LL	2AA-\	8a- 8c/	pp
16E-/	.	.	.
!	!	!LO:TUP:a:problem=klamra łukowa	!
16A-/	.	40aa-\LLL	.
.	.	40bb-\	.
.	.	40aa-\	.
16c/JJ	.	.	.
.	.	40gg\	.
.	.	40aa-\JJJ	.
8a-\L	.	4.eee-\	.
8c\	.	.	.
8E-\	4ryy	.	.
*Xped	*	*	*
8A-\J	.	8cc\	.
=53	=53	=53	=53
.	.	8qcc/	.
*ped	*	*	*
4EE-/	16EE-\LL	4.ee-\	.
.	16E-\	.	.
.	16A-\	.	.
.	16B-\JJ	.	.
*Xped	*	*	*
8e-\L	2ryy	.	.
8B- 8E-\	.	8gL 8d-/	ppp
8A- 8E-\	.	8f 8d-/	.
8GJ 8E-\	.	8e-J 8d-/	.
=54	=54	=54	=54
*	*	*^	*
[8E-/L	[2.AA-\	[2a-/	8d-\	<
!LO:TUP:b:problem=klamra łukowa	!	!	!	!
40E-/LL]	.	.	4.c\	.
40F/	.	.	.	.
40E-/	.	.	.	.
40Dn/	.	.	.	.
40E-/JJJ	.	.	.	.
8G/	.	.	.	.
4F/	.	.	.	.
.	.	8a-/L_	8e-\L	.
!	!	!LO:TUP:a:problem=klamra łukowa	!	!
8F-X/	.	40a-/LL]	8d-\J	.
.	.	40b-/	.	.
.	.	40a-/	.	.
.	.	40g/	.	.
.	.	40a-/JJJ	.	[[
=55	=55	=55	=55	=55
2.E-;/	2.AA-\]	8.ee-/L	2.c\	>
*ped	*	*	*	*
.	.	16a-/Jk	.	]
*Xped	*	*	*	*
.	.	2a-;/	.	.
*v	*v	*	*	*
*	*v	*v	*
==	==	==
*-	*-	*-
!!!system-decoration: {(s1,s2)}
!!!RDF**kern: > = above
!!!RDF**kern: < = below
!!!ENC: Filip Voros
!!!END: 2022-03-14
!!!ENC: Marta Lawrence
!!!END: 2022-03-20
